X:15
T:15 Untitled Hornpipe (Back of the Haggard)
C:Welch MS
I:abc2nwc
M:C
L:1/8
K:D
A2|dfdf ecAc|dGBd AFDF|EGFA Gged|c2A2A2Bc|
dA A2fd d2|ge e2aA A2|BdGB AGFE|D2D2D2:|
A2|dAdA FAFA|BGFG BGdB|gefd ecdB|cdec AGFE|
Fd d2ce e2|df f2eg g2|fafd Bgec|d2d2d2:|


